X:1
T:Title
%%score 1 ( 2 3 )
L:1/8
Q:1/4=115
M:4/4
K:Eb
V:1 treble nm="Grand Piano, Staff"
V:2 bass nm="Choir Pad, Celestia, 77.88.77"
V:3 bass 
V:1
 E2 [DF]2 [EG]2 [EA]2 | [EB]2 [Ge]2 [EB]4 | [Ec]3 [EB] [DA]2 [EG]2 | [DB]2 [EB]2 [DF]4 | %4
w: By~Arranged~by~Jacob~Gerhard~Meidell,~circa~1840~ * * *||||
 [DF]3 [DG] [FA]2 [DF]2 | [EG]3 [EA] [EB]2 [EG]2 | [EF]3 [EG] [EA]2 [DF]2 | %7
w: |||
 [EG]3 [EA] [EB]2 [EG]2 | [EB]3 [Ge] [EB]2 [EG]2 | [EA]2 [DF]2 [EG]4 | [EB]3 [Ge] [EB]2 [EG]2 | %11
w: ||||
 [EA]4 [DF]4 | E8 |] %13
w: ||
V:2
 [E,G,]2 [B,,B,]2 [E,B,]2 [F,B,]2 | [G,B,]2 [E,B,]2 [G,B,]4 | A,3 [G,B,] [F,B,]2 [E,B,]2 | %3
 z2 B,2 z4 | [B,,B,]3 [B,,B,] [B,,B,]2 [B,,B,]2 | [E,B,]3 [F,B,] [G,B,]2 [E,B,]2 | %6
 [A,C]3 [G,C] [F,C]2 B,2 | [E,B,]3 [F,B,] [G,B,]2 [E,B,]2 | [G,B,]3 [E,B,] [G,B,]2 [C,C]2 | %9
 [F,C]2 [B,,B,]2 [E,B,]4 | [G,B,]3 [E,B,] [G,B,]2 [C,C]2 | [F,C]4 [B,,A,]4 | [E,G,]8 |] %13
V:3
 x8 | x8 | x8 | [F,B,]2 G,A, B,4 | x8 | x8 | x8 | x8 | x8 | x8 | x8 | x8 | x8 |] %13

